svgs/sharp-solid/arrow-up-z-a.svg

<svg xmlns="http://www.w3.org/2000/svg" viewBox="0 0 576 512"><!--! Font Awesome Pro 6.6.0 by @fontawesome - https://fontawesome.com License - https://fontawesome.com/license (Commercial License) Copyright 2024 Fonticons, Inc. --><path d="M320 32l32 0 128 0 32 0 0 32 0 8 0 14.5-10.9 9.6L428 160l52 0 32 0 0 64-32 0-128 0-32 0 0-32 0-8 0-14.5 10.9-9.6L404 96l-52 0-32 0 0-64zm-160 .6l23.6 25.7 88 96L293.2 178 246 221.2l-21.6-23.6L192 162.3 192 448l0 32-64 0 0-32 0-285.7L95.6 197.6 74 221.2 26.8 178l21.6-23.6 88-96L160 32.6zM395.5 256l41.1 0 8.6 18.7 88 192 6.1 13.3-70.4 0-14.7-32-76.3 0-14.7 32-70.4 0 6.1-13.3 88-192 8.6-18.7zM416 364.8L399.9 400l32.3 0L416 364.8z"/></svg>

<svg xmlns="http://www.w3.org/2000/svg" viewBox="0 0 576 512"><!--! Font Awesome Pro 6.4.0 by @fontawesome - https://fontawesome.com License - https://fontawesome.com/license (Commercial License) Copyright 2023 Fonticons, Inc. --><path d="M320 32h32H480h32V64v8V86.5l-10.9 9.6L428 160h52 32v64H480 352 320V192v-8V169.5l10.9-9.6L404 96H352 320V32zm-160 .6l23.6 25.7 88 96L293.2 178 246 221.2l-21.6-23.6L192 162.3V448v32H128V448 162.3L95.6 197.6 74 221.2 26.8 178l21.6-23.6 88-96L160 32.6zM395.5 256h41.1l8.6 18.7 88 192 6.1 13.3H468.8l-14.7-32H377.9l-14.7 32H292.8l6.1-13.3 88-192 8.6-18.7zM416 364.8L399.9 400h32.3L416 364.8z"/></svg>
